!!!OTL: Vater und Tochter
!!!OTL-incipit:Es wollt ein Jaeger jagen,
!!!ARE: Europa, Mitteleuropa, Deutschland (), Brandenburg
!!!YOR: 7, S. 10
!!    1854 aufgezeichnet
!!!SCT: Q0142
!!!TXL: @@DE
!!!YEM: Copyright 1995, estate of Helmut Schaffrath.
**kern	**text
*ICvox	*
*M2/4	*
*k[f#]	*
*G:	*
{8d	1._Es
=1	=1
8gL	wollt
8gJ	ein
8gL	Ja-
8bJ	-ger
=2	=2
(8aL	ja-
8f#J)	.
8d}	-gen,
{8d	und
=3	=3
4g	so
4e	sprach
=4	=4
4.d}	er,
{8d	drei
=5	=5
8gL	Stun-
8gJ	-den
8bL	vor
8ccJ	dem
=6	=6
(8ddL	Ta-
8bJ)	.
8g}	-ge
{8d	wohl
=7	=7
8gL	in
8gJ	dem
8aL	grü-
8aJ	-nen
=8	=8
(8.ddL	Wald,
16b	.
8gJ)}	.
{8d	wohl
=9	=9
8gL	in
8gJ	dem
(16bL	grü-
16aJ)	.
8a	-nen
=10	=10
4g	Wald.
8r}	.
==	==
!!!AGN: Ballade, Verfuehrung, Verwechslung
!! Zweite Zeile refrainartig.
!!!ONB: ESAC (Essen Associative Code) Database: BALLADE
!!!AMT: simple duple
!!!AIN: vox
!!!EED: Helmut Schaffrath
!!!EEV: 1.0
!!@@COMMENT:"E7717, Brandenburg.
!!Aufgeʒeichnet von Hermann, 1854"
!!@@END:
!!!source: Deutsche Volkslieder mit ihren Melodien Balladen. Herausgegeben vom Deutschen Volksliedarchiv. Siebenterer Band. Freiburg/Breisgau 1982.
!!!page: 10
!!!ENC: Anna Maria Matuszewska
!!!EEV: 2025/03/07
*-	*-
